X: 20077
T: Jimmy McNelis's Highland
R: strathspey
M: 4/4
K: Bminor
|:B>c|d>Bf>B d<fB>d|c<Ae>A c<eA>c|d>Bf>B d<fB>d|c<Ae>c B2:|
(3gfe|d2 (3fed a>d f2|d>ef>d c<eA>e|d2 (3fed a>df>d|c<e (3ABc d2 (3gfe|
d>Af>d a>df<a|d2 (3fed c<eA>e|d<bf>b d<fb>f|c<ae>c B2||

